!!!!SEGMENT: pl-cz--iii-623--001-004_raszek-waclaw--nieszpory-laudate-pueri.krn
!!!cenid: 18xx:1007
!!!COM: Raszek, Wacław
!!!COM-rismID:
!!!CDT: <1848->1848
!!!CNT:
!!!OPR: Nieszpory
!!!OTL: Laudate pueri
!!!OMV: 004
!!!PDT:
!!!AGN: Sacred
!!!SMS-siglum: PL-CZ
!!!SMS-shelfmark: III-623
!!!SMS-shelfwork: 001-004 M
!!!SMS-variant:
!!!SMS-altvar:
!!!NIFC-rismSourceID: 300001052
!!!NIFC-islandoraID: pl-cz:39506
!!!URL-pdf-islandora: https://repozytorium.nifc.pl/islandora/object/pl-cz%3A39506/datastream/PDF/view
!!!URL-scan:
!!!ONB-nifc: UWAGA: części Nieszporów: Dixit Dominus, Confitebor, Beatus vir, Laudate pueri, In exitu, Laudate Dominum, Iste confessor, Magnificat, Salve Regina. Uwaga: w Canto 1,2 i Tenorze zaburzona kolejność części
!!!AIN: 1 bass 1 cbass 2 clars 1 organ 2 soprn 1 tenor
!!!key: B-
**kern	**kern	**kern	**text	**text	**text	**kern	**text	**text	**text	**kern	**text	**text	**text	**kern	**text	**text	**text	**kern	**kern
*part8	*part7	*part6	*part6	*part6	*part6	*part5	*part5	*part5	*part5	*part4	*part4	*part4	*part4	*part3	*part3	*part3	*part3	*part2	*part1
*staff8	*staff7	*staff6	*staff6	*staff6	*staff6	*staff5	*staff5	*staff5	*staff5	*staff4	*staff4	*staff4	*staff4	*staff3	*staff3	*staff3	*staff3	*staff2	*staff1
*	*	*	*verse1	*verse2	*verse3	*	*verse1	*verse2	*verse3	*	*verse1	*verse2	*verse3	*	*verse1	*verse2	*verse3	*	*
*>[A,B,A]	*>[A,B,A]	*>[A,B,A]	*>[A,B,A]	*>[A,B,A]	*>[A,B,A]	*>[A,B,A]	*>[A,B,A]	*>[A,B,A]	*>[A,B,A]	*>[A,B,A]	*>[A,B,A]	*>[A,B,A]	*>[A,B,A]	*>[A,B,A]	*>[A,B,A]	*>[A,B,A]	*>[A,B,A]	*>[A,B,A]	*>[A,B,A]
*>A	*>A	*>A	*>A	*>A	*>A	*>A	*>A	*>A	*>A	*>A	*>A	*>A	*>A	*>A	*>A	*>A	*>A	*>A	*>A
*I"[Organo]	*I"Baſso.	*I"Baſso.	*	*	*	*I"Tenore	*	*	*	*I"Canto Secondo	*	*	*	*I"Canto Primo	*	*	*	*I"Clarinetto Secondo.	*I"Clarinetto Primo
*I'[org]	*I'b	*I'B	*	*	*	*I'T	*	*	*	*I'S 2	*	*	*	*I'S 1	*	*	*	*I'cl 2	*I'cl 1
*Iorgan	*Icbass	*Ibass	*	*	*	*Itenor	*	*	*	*Isoprn	*	*	*	*Isoprn	*	*	*	*Iclars	*Iclars
*ICklav	*ICstr	*ICvox	*	*	*	*ICvox	*	*	*	*ICvox	*	*	*	*ICvox	*	*	*	*ICww	*ICww
*	*clefF4	*clefF4	*	*	*	*clefC4	*	*	*	*clefC1	*	*	*	*clefC1	*	*	*	*clefG2	*clefG2
*	*k[b-e-]	*k[b-e-]	*	*	*	*k[e-b-]	*	*	*	*k[e-b-]	*	*	*	*k[e-b-]	*	*	*	*k[b-e-]	*k[b-e-]
*	*B-:	*B-:	*	*	*	*B-:	*	*	*	*B-:	*	*	*	*B-:	*	*	*	*B-:	*B-:
*	*	*	*	*	*	*	*	*	*	*	*	*	*	*	*	*	*	*ITrd1c2	*ITrd1c2
*	*M2/2	*M2/2	*	*	*	*M2/2	*	*	*	*M2/2	*	*	*	*M2/2	*	*	*	*M2/2	*M2/2
*	*met(c|)	*met(c|)	*	*	*	*met(c|)	*	*	*	*met(c|)	*	*	*	*met(c|)	*	*	*	*met(c|)	*met(c|)
=1	=1	=1	=1	=1	=1	=1	=1	=1	=1	=1	=1	=1	=1	=1	=1	=1	=1	=1	=1
*	*	*	*	*	*	*2\right	*	*	*	*	*	*	*	*2\right	*	*	*	*2\right	*2\right
!LO:TX:t=P:problem=zgodnie z RISM "org missing"	!	!	!	!	!	!	!	!	!	!	!	!	!	!	!	!	!	!LO:TX:a:t=in B.:note=podkreślone	!LO:TX:a:t=in B.:note=podkreślone
1ryy	4B-\	2BB-/	Chwal-	Gdzie	Kto	2d\	Chwal-	Gdzie	Kto	2f/	Chwal-	Gdzie	Kto	2b-\	Chwal-	Gdzie	Kto	2dd\	2bb-\
.	4BB-/	.	.	.	.	.	.	.	.	.	.	.	.	.	.	.	.	.	.
.	4D/	4D/	-cie	wscho-	się	4d\	-cie	wscho-	się	4f/	-cie	wscho-	się	4b-\	-cie	wscho-	się	4dd\	4ff\
.	4F/	4F/	O!	-dzi	wzdẏ	4d\	O!	-dzi	wzdẏ	4f/	o!	-dzi	wzdẏ	4b-\	o.	-dzi	wzdẏ	4b-\	4dd\
=2	=2	=2	=2	=2	=2	=2	=2	=2	=2	=2	=2	=2	=2	=2	=2	=2	=2	=2	=2
*	*	*2\right	*	*	*	*	*	*	*	*	*	*	*	*	*	*	*	*	*
1ryy	4BB-/	2.B-\	Dziat-	słoń-	z_Pa-	2.f\	Dziat-	słoń-	z_Pa-	2.f/	Dziat-	słoń-	z_Pa-	2.dd\	Dziat-	słoń-	z_Pa-	4d/	4b-\
.	4D/	.	.	.	.	.	.	.	.	.	.	.	.	.	.	.	.	8d/L	8f/L
.	.	.	.	.	.	.	.	.	.	.	.	.	.	.	.	.	.	8f/J	8b-/J
.	4F/	.	.	.	.	.	.	.	.	.	.	.	.	.	.	.	.	4f/	4dd\
.	4B-/	4BB-/	-ki	-ce	-nem	4d\	-ki	-ce	-nem	4f/	-ki	-ce	-nem	4b-\	-ki	-ce	-nem	4d/	4b-\
=3	=3	=3	=3	=3	=3	=3	=3	=3	=3	=3	=3	=3	=3	=3	=3	=3	=3	=3	=3
1ryy	4F\	4F\	Naẏ-	i	tym	4c\	Naẏ-	i	tym	4f/	Naẏ-	i	tẏm	4a\	Naẏ-	i	tẏm	4f/	4a\
.	4F\	4F\	-wyż-	kę-	po-	4B-\	-wẏz-	kę-	po-	4g/	-wyż-	kę-	po-	4b-\	-wyż-	kę-	po-	4g/	4b-\
.	4F\	4F\	-ſze-	-dẏ	-ro-	4A\	-ſze-	-dẏ	-ro-	4a/	-ſze-	-dẏ	-ro-	4cc\	-ſze-	-dẏ	-ró-	4a/	4cc\
.	4F\	4F\	-go	za-	-wna!	4B-\	-go	za-	-wna	4b-/	-go	za-	-wna!	4dd\	-go	za-	-wna	4b-/	4dd\
!	!	!LO:LB:g=original	!	!	!	!LO:LB:g=original	!	!	!	!LO:LB:g=original	!	!	!	!LO:LB:g=original	!	!	!	!	!LO:LB:g=original
=4	=4	=4	=4	=4	=4	=4	=4	=4	=4	=4	=4	=4	=4	=4	=4	=4	=4	=4	=4
*	*	*	*	*	*	*	*	*	*	*2\right	*	*	*	*	*	*	*	*	*
1ryy	4FF/	2F\	Pa-	-Pa-	Któ-	2c\	Pa-	-pa-	któ-	2a\	Pa-	-Pa-	Któ-	(4ff\	Pa-	-pa-	któ-	4a\	(4ff\
.	4F\	.	.	.	.	.	.	.	.	.	.	.	.	4ee-\)	.	.	.	4cc\	4ee-\)
.	4FF/	2F\	-na	-da	-rẏ	2e-\	-na	-da	-rẏ	2a\	-na	-da	-rẏ	2cc\	-na	-da	-rẏ	8a/L	8cc\L
!	!	!	!	!	!	!	!	!	!	!	!	!	!	!	!	!	!	!LO:SIC:v:s=8g#/	!
.	.	.	.	.	.	.	.	.	.	.	.	.	.	.	.	.	.	8g/	8bX\
.	4F\	.	.	.	.	.	.	.	.	.	.	.	.	.	.	.	.	8a/	8cc\
.	.	.	.	.	.	.	.	.	.	.	.	.	.	.	.	.	.	8b-/J	8dd\J
!	!LO:LB:g=original	!	!	!	!	!	!	!	!	!	!	!	!	!	!	!	!	!LO:LB:g=original	!
=5	=5	=5	=5	=5	=5	=5	=5	=5	=5	=5	=5	=5	=5	=5	=5	=5	=5	=5	=5
1ryy	2C/	2C/	niech	Nie-	Wẏ-	2c\	niech	Nie-	Wẏ-	2g\	niech	Nie-	Wẏ-	2ee-\	niech	Nie-	Wẏ-	4cc\	4ee-\
.	.	.	.	.	.	.	.	.	.	.	.	.	.	.	.	.	.	4ee-\	4gg\
.	4D/	4D/	mu	-chaẏ	-so-	4Bn\	mu	-chaẏ	-so-	4f/	mu	-chaẏ	-so-	4dd\	mu	-chaẏ	-so-	4g/	4bX\
.	4E-/	4E-/	ie-	swiat	-ko	4c\	ie-	swiat	-ko	4e-/	ie-	swiat	-ko	4cc\	je-	swiat	-ko	4g/	4cc\
=6	=6	=6	=6	=6	=6	=6	=6	=6	=6	=6	=6	=6	=6	=6	=6	=6	=6	=6	=6
1ryy	4F\	2F\	-dne-	bo-	sie-	2G/	-dne-	bo-	sie-	2d/	-dne-	bo-	sie-	2bn\	-dne-	Bo-	sie-	2d/	8bX\L
.	.	.	.	.	.	.	.	.	.	.	.	.	.	.	.	.	.	.	8dd\
.	4D\	.	.	.	.	.	.	.	.	.	.	.	.	.	.	.	.	.	8gg\
.	.	.	.	.	.	.	.	.	.	.	.	.	.	.	.	.	.	.	8b\J
.	4E-\	4E-\	-mu	-ską	-dząc	4G/	-mu	-ską	-dząc	4g/	-mu	-ską	-dząc	4cc\	-mu	-ską	-dząc	4g/	8cc\L
.	.	.	.	.	.	.	.	.	.	.	.	.	.	.	.	.	.	.	8ee-\
.	4C\	4C\	cześć	chwa-	z_sweẏ	4A/	cześć	chwa-	z_swey	4f/	cześć	chwa-	z_sweẏ	4ee-\	cześć	chwa-	z_sweẏ	4a/	8a\
.	.	.	.	.	.	.	.	.	.	.	.	.	.	.	.	.	.	.	8ee-\J
=7	=7	=7	=7	=7	=7	=7	=7	=7	=7	=7	=7	=7	=7	=7	=7	=7	=7	=7	=7
1ryy	4BB-/	(4BB-/	bę-	-łe	Nie-	2B-\	bę-	-łe	nie-	2f/	bę-	-łe	nie-	(4dd\	bę-	-łę	nie-	8b-\L	8dd\L
.	.	.	.	.	.	.	.	.	.	.	.	.	.	.	.	.	.	8dd\J	8ff\J
.	4D/	4D/)	.	.	.	.	.	.	.	.	.	.	.	4b-\)	.	.	.	8r	8r
.	.	.	.	.	.	.	.	.	.	.	.	.	.	.	.	.	.	8f/	8b-\
.	4E-/	4E-/	-dzie	o-	-bie-	4e-\	-dzie	o-	-bie-	4g/	-dzie	o-	-bie-	4cc\	-dzie	o-	-bie-	8g/L	8cc\L
.	.	.	.	.	.	.	.	.	.	.	.	.	.	.	.	.	.	8e-/J	8ee-\J
.	4F/	4F/	spie-	-po-	-skieẏ	4c\	spie-	-po-	-skieẏ	4e-/	spie-	-po-	-skieẏ	4a\	spie-	-po-	-skieẏ	8r	8r
.	.	.	.	.	.	.	.	.	.	.	.	.	.	.	.	.	.	8e-/	8a\
!	!	!	!	!	!	!LO:LB:g=original	!	!	!	!	!	!	!	!	!	!	!	!	!LO:LB:g=original
=8	=8	=8	=8	=8	=8	=8	=8	=8	=8	=8	=8	=8	=8	=8	=8	=8	=8	=8	=8
1ryy	4FF/	2F\	-wa-	-wia-	gó-	2c\	-wa-	-wia-	gó-	2e-/	-wa-	-wia-	gó-	2a\	-wa-	-wia-	gó-	2e-/	2a\
.	4F\	.	.	.	.	.	.	.	.	.	.	.	.	.	.	.	.	.	.
.	4BB-/	4BB-/	-na	-da	-rẏ	4B-\	-na	-da	-rẏ	4d/	-na	-da	-rẏ	4b-\	-[na]	-[da]	-[ry]	4d/	4b-\
!	!	!	!	!	!	!	!	!	!	!LO:TX:t=P:problem=kreska taktowa pojedyncza	!	!	!	!LO:TX:t=P:problem=fragment nieczytelny	!	!	!	!	!
.	4r	4r	.	.	.	4r	.	.	.	4r	.	.	.	4ryy	.	.	.	4r	4r
!	!	!LO:LB:g=original	!	!	!	!	!	!	!	!LO:PB:g=original	!	!	!	!LO:PB:g=original	!	!	!	!	!
=9||	=9||	=9||	=9||	=9||	=9||	=9||	=9||	=9||	=9||	=9||	=9||	=9||	=9||	=9||	=9||	=9||	=9||	=9||	=9||
*>B	*>B	*>B	*>B	*>B	*>B	*>B	*>B	*>B	*>B	*>B	*>B	*>B	*>B	*>B	*>B	*>B	*>B	*>B	*>B
!	!	!	!	!	!	!LO:TX:a:t=4.	!	!	!	!	!	!	!	!	!	!	!	!LO:TX:a:t=4.	!LO:TX:a:t=4.
1ryy	4FF/	2F\	Je-	Pan	J	00r	.	.	.	2a\	Je-	Pan	J	2cc\	je-	Pan	I	00r	00r
.	4F\	.	.	.	.	.	.	.	.	.	.	.	.	.	.	.	.	.	.
.	4F\	4F\	-go	ma	co	.	.	.	.	4a\	-go	ma	co	4cc\	-go	ma	co	.	.
.	4F\	4F\	niech	na-	na	.	.	.	.	4a\	niech	na-	na	4cc\	niech	na-	na	.	.
!	!LO:LB:g=original	!	!	!	!	!	!	!	!	!	!	!	!	!	!	!	!	!	!
=10	=10	=10	=10	=10	=10	=10	=10	=10	=10	=10	=10	=10	=10	=10	=10	=10	=10	=10	=10
1ryy	4BB-/	(4BB-/	J-	-ro-	nie-	.	.	.	.	2b-\	J-	-ro-	nie-	2dd\	J-	-ro-	nie-	.	.
.	4D/	4D/)	.	.	.	.	.	.	.	.	.	.	.	.	.	.	.	.	.
.	4F/	2F\	-mie	-dẏ	-bie	.	.	.	.	2a\	-mie	-dẏ	-bie	2cc\	-mie	-dẏ	-bie	.	.
.	4FF/	.	.	.	.	.	.	.	.	.	.	.	.	.	.	.	.	.	.
=11	=11	=11	=11	=11	=11	=11	=11	=11	=11	=11	=11	=11	=11	=11	=11	=11	=11	=11	=11
1ryy	4GG/	4G\	w_U-	wszyst-	i	.	.	.	.	4g\	w_U-	wszyst-	i	4b-\	w_U-	wszyst-	i	.	.
.	4G\	4G\	-szach	-kie	co	.	.	.	.	4g\	-szach	-kie	co	4b-\	-szach	-kie	co	.	.
.	4F#X\	4F#X\	Ludz-	pod	iest	.	.	.	.	4a\	ludz-	pod	iest	4cc\	ludz-	pod	iest	.	.
.	4G\	4G\	-kich	no-	na	.	.	.	.	4g\	-kich	no-	na	4b-\	-kich	no-	na	.	.
=12	=12	=12	=12	=12	=12	=12	=12	=12	=12	=12	=12	=12	=12	=12	=12	=12	=12	=12	=12
1ryy	4r	2D\	sły-	-ga-	Zie-	.	.	.	.	2g/	sły-	-ga-	zie-	2b-\	słẏ-	-ga-	zie-	.	.
.	4D\	.	.	.	.	.	.	.	.	.	.	.	.	.	.	.	.	.	.
.	4DD/	2D\	-nie	-mi	-mi	.	.	.	.	2f#X/	-nie	-mi	-mi	2a\	-nie	-mi	-mi	.	.
.	4D\	.	.	.	.	.	.	.	.	.	.	.	.	.	.	.	.	.	.
!	!	!LO:LB:g=original	!	!	!	!	!	!	!	!	!	!	!	!LO:LB:g=original	!	!	!	!	!
=13	=13	=13	=13	=13	=13	=13	=13	=13	=13	=13	=13	=13	=13	=13	=13	=13	=13	=13	=13
*	*2\right	*	*	*	*	*	*	*	*	*	*	*	*	*	*	*	*	*	*
1ryy	2E-\	2E-\	Po-	J-	O-	2A\	po-	Je-	O-	2f#X/	po-	Je-	O-	2cc\	po-	Je-	O-	8r	8r
.	.	.	.	.	.	.	.	.	.	.	.	.	.	.	.	.	.	8a/L	8cc\L
!	!	!	!	!	!	!	!	!	!	!	!	!	!	!	!	!	!	!LO:SIC:v:s=8f#/	!
.	.	.	.	.	.	.	.	.	.	.	.	.	.	.	.	.	.	8f/	8a\
.	.	.	.	.	.	.	.	.	.	.	.	.	.	.	.	.	.	8a/J	8cc\J
!	!	!	!	!	!	!	!	!	!	!LO:LB:g=original	!	!	!	!	!	!	!	!LO:LB:g=original	!
.	4E-\	4E-\	-ki	-go	-czẏ-	4A\	-ki	-go	-czẏ-	4f#/	-ki	-go	-czẏ-	4cc\	-ki	-go	-czẏ-	8r	8ff\L
.	.	.	.	.	.	.	.	.	.	.	.	.	.	.	.	.	.	8a/L	8cc\
!	!	!	!	!	!	!	!	!	!	!	!	!	!	!	!	!	!	!LO:SIC:v:s=8f#/	!
.	4E-\	4E-\	Wiek	się	-ma	4A\	Wiek	się	-ma	4f#/	Wiek	się	-ma	4cc\	Wiek	się	-ma	8f/	8a\
.	.	.	.	.	.	.	.	.	.	.	.	.	.	.	.	.	.	8a/J	8cc\J
=14	=14	=14	=14	=14	=14	=14	=14	=14	=14	=14	=14	=14	=14	=14	=14	=14	=14	=14	=14
1ryy	4D/	(>4D/	po-	chwa-	wi-	(4B-\	po-	chwa-	wi-	(4b-\	po-	chwa-	wi-	(4dd\	po-	chwa-	wi-	4b-\	8b-\L
.	.	.	.	.	.	.	.	.	.	.	.	.	.	.	.	.	.	.	8dd\
.	4C/	4C/	.	.	.	4c\	.	.	.	4a\	.	.	.	4ee-\	.	.	.	4a\	8ee-\
.	.	.	.	.	.	.	.	.	.	.	.	.	.	.	.	.	.	.	8cc\J
.	4BB-/	4BB-/)	.	.	.	4d\)	.	.	.	4b-\)	.	.	.	4ff\)	.	.	.	8dd\L	(8ff\L
.	.	.	.	.	.	.	.	.	.	.	.	.	.	.	.	.	.	8b-\	8dd\
.	4G/	4G|\	-znẏ	-ła	-dzi	4B-|\	-znẏ	-ła	-dzi	4b-|\	-znẏ	-ła	-dzi	4dd\	-żnẏ	-ła	-dzi	8b-\	8dd\
.	.	.	.	.	.	.	.	.	.	.	.	.	.	.	.	.	.	8b-\J	8dd\J)
!	!	!	!	!	!	!LO:PB:g=original	!	!	!	!	!	!	!	!	!	!	!	!	!LO:LB:g=original
=15	=15	=15	=15	=15	=15	=15	=15	=15	=15	=15	=15	=15	=15	=15	=15	=15	=15	=15	=15
1ryy	4E-\	4E-\	swo-	wzno-	nie-	4c\	swo-	wzno-	nie-	4g/	swo-	wzno-	nie-	4ee-\	swo-	wzno-	nie-	4g/	8r
.	.	.	.	.	.	.	.	.	.	.	.	.	.	.	.	.	.	.	8cc\L
.	4E-\	4E-\	-im	-si	-u-	4e-\	-im	-si	-u-	4g/	-im	-si	-u-	4cc\	-im	-si	-u-	4g/	8ee-\
.	.	.	.	.	.	.	.	.	.	.	.	.	.	.	.	.	.	.	8cc\J
.	4F\	4F\	to-	nad	-chro-	4d\	to-	nad	-chro-	4f/	to-	nad	-chro-	4b-\	to-	nad	-chro-	8f/L	8dd\L
.	.	.	.	.	.	.	.	.	.	.	.	.	.	.	.	.	.	8d/	8b-\
!	!	!	!	!	!	!	!	!	!	!LO:SIC:v:s=4c/	!	!	!	!	!	!	!	!	!
.	4FF/	4F\	-rem	gwia-	-nio-	4c\	-rem	gwia-	-nio-	4d/	-rem	gwia-	-nio-	4a\	-rem	gwia-	-nio-	8e-/	8cc\
.	.	.	.	.	.	.	.	.	.	.	.	.	.	.	.	.	.	8c/J	8a\J
=16	=16	=16	=16	=16	=16	=16	=16	=16	=16	=16	=16	=16	=16	=16	=16	=16	=16	=16	=16
1ryy	2FF/	2F\	płẏ-	-zda-	-ne-	2A\	płẏ-	-zda-	-ne-	2e-/	pły-	-zda-	-ne-	2cc\	płẏ-	-zda-	-ne-	2e-/	(2cc\
.	4BB-/	4BB-/	-nie	-mi	-mi	4B-\	-nie	-mi	-mi	4d/	-nie	-mi	-mi	4b-\	-nie	-mi	-mi	4d/	4b-\)
!	!LO:TX:b:t=Da Ca[po]	!	!	!	!	!	!	!	!	!	!	!	!	!	!	!	!	!	!
!	!LO:TX:t=P:problem=fragment nieczytelny	!	!	!	!	!LO:TX:a:t=Da Capo.	!	!	!	!LO:TX:a:t=Da \nCapo	!	!	!	!LO:TX:b:t=Da \nCapo	!	!	!	!LO:TX:a:t=Da Capo.	!LO:TX:a:t=Da Capo.
.	4ryy	4r	.	.	.	4r	.	.	.	4r	.	.	.	4r	.	.	.	4r	4r
==	==	==	==	==	==	==	==	==	==	==	==	==	==	==	==	==	==	==	==
*-	*-	*-	*-	*-	*-	*-	*-	*-	*-	*-	*-	*-	*-	*-	*-	*-	*-	*-	*-
!!!system-decoration: [(s1,s2)][(s3,s4,s5,s6)]<s7,s8>
!!!RDF**kern: > = above
!!!RDF**kern: < = below
!!!RDF**kern: | = vertical stroke
!!!ENC: Katarzyna Serwa
!!!END: 2020-10-01
!!!ENC: Andrzej Kubiczek
!!!END: 2021-11-19
